logos/xl2_sw.svg

<svg class="w-[92px] xl:w-[132px]" viewBox="0 0 92 32" fill="#ffffff"><path d="M71.0426 31.9199C70.1217 31.9199 69.2118 31.5273 68.576 30.7639C67.4578 29.4116 67.6442 27.416 69.0035 26.2927C74.4081 21.8543 83.2329 14.5695 84.088 13.7843C85.6337 12.2467 85.6446 11.2216 85.6337 10.1965C85.6337 7.7864 82.8054 6.32508 80.0209 6.32508C77.2254 6.32508 74.4081 7.83002 74.4081 10.1965C74.4081 12.0504 72.9281 13.3699 71.218 13.3699C69.453 13.3699 68.0279 11.9522 68.0279 10.1965C68.0279 4.38394 73.1803 0 80.0209 0C86.8615 0 92.0139 4.38394 92.0139 10.1965C92.0139 12.5629 91.7508 15.1475 88.5826 18.2991C87.8152 19.0625 77.4776 27.5686 73.0706 31.1892C72.4787 31.6799 71.7551 31.9199 71.0426 31.9199ZM88.8238 31.9417C90.5887 31.9417 92.0139 30.524 92.0139 28.7682C92.0139 27.0125 90.5887 25.5948 88.8238 25.5948H85.3377C83.5727 25.5948 82.1476 27.0125 82.1476 28.7682C82.1476 30.524 83.5727 31.9417 85.3377 31.9417H88.8238ZM58.633 31.9417H40.2818C38.5168 31.9417 37.0917 30.524 37.0917 28.7682C37.0917 27.0125 38.5168 25.5948 40.2818 25.5948H58.644C60.4089 25.5948 61.8341 27.0125 61.8341 28.7682C61.8341 30.524 60.398 31.9417 58.633 31.9417ZM43.4718 4.19855C43.4718 2.44279 42.0467 1.0251 40.2818 1.0251C38.5168 1.0251 37.0917 2.44279 37.0917 4.19855V19.4224C37.0917 21.1781 38.5168 22.5958 40.2818 22.5958C42.0467 22.5958 43.4718 21.1781 43.4718 19.4224V4.19855ZM22.4896 14.057C21.2399 15.3002 19.2228 15.3002 17.984 14.057C16.7343 12.8137 16.7343 10.8072 17.984 9.57487L25.6358 1.96296C26.8856 0.719751 28.9027 0.719751 30.1414 1.96296C31.3912 3.20616 31.3912 5.21274 30.1414 6.44504L22.4896 14.057ZM13.0947 23.4028C14.3445 22.1596 14.3445 20.153 13.0947 18.9207C11.845 17.6775 9.82789 17.6775 8.58913 18.9207L0.937295 26.5326C-0.312432 27.7758 -0.312432 29.7824 0.937295 31.0147C2.18702 32.2579 4.20412 32.2579 5.44289 31.0147L13.0947 23.4028ZM5.44289 1.96296C4.19316 0.719751 2.17606 0.719751 0.937295 1.96296C-0.312432 3.20616 -0.312432 5.21274 0.937295 6.44504L8.58913 14.057C9.83886 15.3002 11.856 15.3002 13.0947 14.057C14.3445 12.8137 14.3445 10.8072 13.0947 9.57487L5.44289 1.96296ZM22.4896 18.9098C21.2399 17.6666 19.2228 17.6666 17.984 18.9098C16.7343 20.153 16.7343 22.1596 17.984 23.3919L25.6358 31.0038C26.8856 32.247 28.9027 32.247 30.1414 31.0038C31.3912 29.7606 31.3912 27.754 30.1414 26.5217L22.4896 18.9098Z" fill="currentColor"></path></svg>

<svg class="w-[92px] xl:w-[132px]" viewBox="0 0 92 32" fill="currentColor">
  <path d="M71.04 31.92c-.92 0-1.83-.39-2.46-1.15-1.12-1.35-.94-3.35.42-4.47 5.41-4.44 14.23-11.72 15.09-12.5C85.64 12.25 85.65 11.22 85.64 10.2c0-2.41-2.83-3.88-5.62-3.88-2.8 0-5.62 1.5-5.62 3.87 0 1.86-1.48 3.18-3.19 3.18s-3.19-1.42-3.19-3.18c0-5.81 5.16-10.2 12-10.2 6.84 0 12 4.38 12 10.2 0 2.37-.26 4.95-3.43 8.1-.76.77-11.1 9.27-15.5 12.9-.6.49-1.32.72-2.03.72zM88.82 31.94a3.18 3.18 0 0 0 3.19-3.17c0-1.76-1.42-3.18-3.2-3.18h-3.48a3.18 3.18 0 0 0-3.19 3.18c0 1.75 1.42 3.17 3.2 3.17h3.48zM58.63 31.94H40.28a3.18 3.18 0 0 1-3.19-3.17c0-1.76 1.42-3.18 3.2-3.18h18.36a3.18 3.18 0 0 1 3.19 3.18c0 1.75-1.42 3.17-3.2 3.17zM43.47 4.2a3.18 3.18 0 0 0-3.19-3.18c-1.76 0-3.19 1.42-3.19 3.18v15.22a3.18 3.18 0 0 0 3.19 3.18c1.77 0 3.19-1.42 3.19-3.18V4.2zM22.49 14.05c-1.25 1.25-3.27 1.25-4.51 0-1.25-1.25-1.25-3.25 0-4.48L25.63 2c1.25-1.24 3.27-1.24 4.51 0 1.25 1.25 1.25 3.25 0 4.48L22.49 14.05zM13.1 23.4c1.25-1.24 1.25-3.25 0-4.48-1.25-1.25-3.27-1.25-4.51 0L.94 26.53c-1.25 1.25-1.25 3.25 0 4.48 1.25 1.25 3.27 1.25 4.51 0l7.65-7.61zM5.44 1.96C4.2.72 2.17.72.94 1.96c-1.25 1.25-1.25 3.25 0 4.48l7.65 7.62a4.5 4.5 0 0 0 4.5-4.48L5.44 1.96zm17.05 16.95c-1.25-1.24-3.27-1.24-4.51 0-1.25 1.25-1.25 3.25 0 4.48l7.65 7.61c1.25 1.25 3.27 1.25 4.51 0 1.25-1.25 1.25-3.25 0-4.48l-7.65-7.61z"/>
</svg>
